Adwaita++/status/16/network-wired-no-route.svg

<svg id="svg8" height="16" width="16.04" xmlns="http://www.w3.org/2000/svg">
  <g id="g6" fill="#474747">
    <path id="path2" d="m0 10.988h5.016v4.972h-5.016zm5.024-9.961v3.03a4.98 4.98 0 0 1 2.739-1.034 4.921 4.921 0 0 1 2.277.438v-2.434zm6 10.001h5.016v4.972h-5.016z" opacity=".35"/>
    <path id="path829" d="m-2.25 4.234375c-.4634352 0-.9081483.053674-1.3320312.1621094h-.00195c-.4047901.1060156-.778369.2483582-1.1171907.4277344l-.3691406.1953124.6777344 1.8789063.4921875-.265625c.4981773-.2688577.9862209-.3964844 1.4902344-.3964844.3789145 0 .58214.089953.7128906.2207031l.00391.00195.00391.00391c.1467203.1412863.2128906.2903564.2128906.5605469 0 .1570598-.033066.2826256-.1015625.4082031l-.00391.00781-.00391.00781c-.076904.1538085-.1805448.3043379-.3144531.453125-.1540701.171189-.3181292.3435198-.4902344.515625-.1895759.181032-.3683595.3808976-.5371094.5957032-.1856512.2269071-.3414502.4748348-.4648437.7421874l-.00391.00781-.00195.00586c-.1253882.2963722-.1855469.6213402-.1855469.9609382 0 .224727.020289.443238.0625.654296l.078125.388672h2.0214844l-.1152344-.576172c-.00163-.0081-.00391-.02614-.00391-.05273v-.146484c0-.230128.04392-.414012.1230468-.572266v-.002l.00195-.0039c.097961-.203458.2167051-.38394.3574218-.5468755l.00391-.00391.00391-.00391c.15396325-.1863257.32315403-.3668438.5117189-.5390117.22032398-.2011654.42360723-.4122533.60742187-.6347657.19127753-.2315465.35421421-.4799127.48632813-.7441406l.001953-.00391v-.0039025c.14981476-.3111535.22265637-.6579158.22265638-1.0214844 0-.2902364-.0500652-.58405-.140625-.8789062-.09181262-.3386316-.26445366-.6507108-.50585938-.9140625-.2491912-.271845-.57295665-.4789643-.94726562-.6328125-.00053558-.0002381-.001417.0002376-.001953 0-.40580858-.179996-.88261768-.2558594-1.43359388-.2558594zm-.2128906 7.839844c-.3790682 0-.759805.145876-1.0117188.425781-.2320484.257832-.3632812.602256-.3632812.949219s.1312323.691387.3632812.949219c.2519138.279904.6326506.425781 1.0117188.425781s.7598049-.145877 1.0117187-.425781c.2320489-.257832.3632813-.602256.3632813-.949219s-.1312328-.691387-.3632813-.949219c-.2519138-.279905-.6326505-.425781-1.0117187-.425781z" fill="#444" transform="matrix(1.0387812 0 0 1.0387812 10.152446 .247577)"/>
  </g>
</svg>

<?xml version="1.0" encoding="UTF-8" standalone="no"?>
<svg
   xmlns:dc="http://purl.org/dc/elements/1.1/"
   xmlns:cc="http://creativecommons.org/ns#"
   xmlns:rdf="http://www.w3.org/1999/02/22-rdf-syntax-ns#"
   xmlns:svg="http://www.w3.org/2000/svg"
   xmlns="http://www.w3.org/2000/svg"
   xmlns:sodipodi="http://sodipodi.sourceforge.net/DTD/sodipodi-0.dtd"
   xmlns:inkscape="http://www.inkscape.org/namespaces/inkscape"
   width="16.04"
   height="16"
   version="1.1"
   id="svg8"
   sodipodi:docname="network-wired-no-route.svg"
   inkscape:version="0.92.4 (5da689c313, 2019-01-14)">
  <metadata
     id="metadata14">
    <rdf:RDF>
      <cc:Work
         rdf:about="">
        <dc:format>image/svg+xml</dc:format>
        <dc:type
           rdf:resource="http://purl.org/dc/dcmitype/StillImage" />
      </cc:Work>
    </rdf:RDF>
  </metadata>
  <defs
     id="defs12" />
  <sodipodi:namedview
     pagecolor="#ffffff"
     bordercolor="#666666"
     borderopacity="1"
     objecttolerance="10"
     gridtolerance="10"
     guidetolerance="10"
     inkscape:pageopacity="0"
     inkscape:pageshadow="2"
     inkscape:window-width="1920"
     inkscape:window-height="1016"
     id="namedview10"
     showgrid="false"
     inkscape:zoom="56.034195"
     inkscape:cx="8.02"
     inkscape:cy="7.4865"
     inkscape:window-x="0"
     inkscape:window-y="27"
     inkscape:window-maximized="1"
     inkscape:current-layer="g6" />
  <g
     color="#bebebe"
     fill="#474747"
     id="g6">
    <path
       d="M0 10.988h5.016v4.972H0zM5.024 1.027v3.03a4.98 4.98 0 0 1 2.739-1.034 4.921 4.921 0 0 1 2.277.438V1.027zM11.024 11.028h5.016V16h-5.016z"
       style="isolation:auto;mix-blend-mode:normal;marker:none"
       overflow="visible"
       opacity=".35"
       id="path2" />
    <g
       aria-label="?"
       style="font-style:normal;font-weight:normal;font-size:40px;line-height:1.25;font-family:sans-serif;letter-spacing:0px;word-spacing:0px;fill:#444444;fill-opacity:1;stroke:#000000;stroke-width:0.96266663;stroke-miterlimit:4;stroke-dasharray:none;stroke-opacity:1"
       id="text827"
       transform="matrix(1.0387812,0,0,1.0387812,10.152446,0.2475769)">
      <path
         style="color:#000000;font-style:normal;font-variant:normal;font-weight:normal;font-stretch:normal;font-size:13.33333302px;line-height:1.25;font-family:Ubuntu;-inkscape-font-specification:Ubuntu;font-variant-ligatures:normal;font-variant-position:normal;font-variant-caps:normal;font-variant-numeric:normal;font-variant-alternates:normal;font-feature-settings:normal;text-indent:0;text-align:start;text-decoration:none;text-decoration-line:none;text-decoration-style:solid;text-decoration-color:#000000;letter-spacing:0px;word-spacing:0px;text-transform:none;writing-mode:lr-tb;direction:ltr;text-orientation:mixed;dominant-baseline:auto;baseline-shift:baseline;text-anchor:start;white-space:normal;shape-padding:0;clip-rule:nonzero;display:inline;overflow:visible;visibility:visible;opacity:1;isolation:auto;mix-blend-mode:normal;color-interpolation:sRGB;color-interpolation-filters:linearRGB;solid-color:#000000;solid-opacity:1;vector-effect:none;fill:#444444;fill-opacity:1;fill-rule:nonzero;stroke:none;stroke-width:0.96266663;stroke-linecap:butt;stroke-linejoin:miter;stroke-miterlimit:4;stroke-dasharray:none;stroke-dashoffset:0;stroke-opacity:1;color-rendering:auto;image-rendering:auto;shape-rendering:auto;text-rendering:auto;enable-background:accumulate"
         d="m -2.25,4.234375 c -0.4634352,0 -0.9081483,0.053674 -1.3320312,0.1621094 h -0.00195 C -3.9887713,4.5025 -4.3623502,4.6448426 -4.7011719,4.8242188 l -0.3691406,0.1953124 0.6777344,1.8789063 0.4921875,-0.265625 c 0.4981773,-0.2688577 0.9862209,-0.3964844 1.4902344,-0.3964844 0.3789145,0 0.58214,0.089953 0.7128906,0.2207031 l 0.00391,0.00195 0.00391,0.00391 c 0.1467203,0.1412863 0.2128906,0.2903564 0.2128906,0.5605469 0,0.1570598 -0.033066,0.2826256 -0.1015625,0.4082031 l -0.00391,0.00781 -0.00391,0.00781 c -0.076904,0.1538085 -0.1805448,0.3043379 -0.3144531,0.453125 -0.1540701,0.171189 -0.3181292,0.3435198 -0.4902344,0.515625 -0.1895759,0.181032 -0.3683595,0.3808976 -0.5371094,0.5957032 -0.1856512,0.2269071 -0.3414502,0.4748348 -0.4648437,0.7421874 l -0.00391,0.00781 -0.00195,0.00586 C -3.5238263,10.063944 -3.583985,10.388912 -3.583985,10.72851 c 0,0.224727 0.020289,0.443238 0.0625,0.654296 l 0.078125,0.388672 h 2.0214844 L -1.53711,11.195306 c -0.00163,-0.0081 -0.00391,-0.02614 -0.00391,-0.05273 v -0.146484 c 0,-0.230128 0.04392,-0.414012 0.1230468,-0.572266 v -0.002 l 0.00195,-0.0039 c 0.097961,-0.203458 0.2167051,-0.38394 0.3574218,-0.5468755 l 0.00391,-0.00391 0.00391,-0.00391 C -0.89681815,9.6769048 -0.72762737,9.4963867 -0.5390625,9.3242188 -0.31873852,9.1230534 -0.11545527,8.9119655 0.06835937,8.6894531 0.2596369,8.4579066 0.42257358,8.2095404 0.5546875,7.9453125 l 0.001953,-0.00391 V 7.9375 C 0.70645526,7.6263465 0.77929687,7.2795842 0.77929688,6.9160156 c 0,-0.2902364 -0.0500652,-0.58405 -0.140625,-0.8789062 C 0.54685926,5.6984778 0.37421822,5.3863986 0.1328125,5.1230469 -0.1163787,4.8512019 -0.44014415,4.6440826 -0.81445312,4.4902344 c -5.3558e-4,-2.381e-4 -0.001417,2.376e-4 -0.001953,0 C -1.2222147,4.3102384 -1.6990238,4.234375 -2.25,4.234375 Z m -0.2128906,7.839844 c -0.3790682,0 -0.759805,0.145876 -1.0117188,0.425781 -0.2320484,0.257832 -0.3632812,0.602256 -0.3632812,0.949219 0,0.346963 0.1312323,0.691387 0.3632812,0.949219 0.2519138,0.279904 0.6326506,0.425781 1.0117188,0.425781 0.3790682,0 0.7598049,-0.145877 1.0117187,-0.425781 0.2320489,-0.257832 0.3632813,-0.602256 0.3632813,-0.949219 0,-0.346963 -0.1312328,-0.691387 -0.3632813,-0.949219 -0.2519138,-0.279905 -0.6326505,-0.425781 -1.0117187,-0.425781 z"
         id="path829"
         inkscape:connector-curvature="0"
         sodipodi:nodetypes="scccccsscccscccscccccsccccssccccccsscccscsccssssssssss" />
    </g>
  </g>
</svg>
